X:1
T:Title
%%score ( 1 2 ) { ( 3 7 8 ) | ( 4 5 6 ) }
L:1/8
M:4/4
K:Db
V:1 treble nm="Akkordion"
V:2 treble 
V:3 treble nm="Grand Piano"
V:7 treble 
V:8 treble 
V:4 treble 
V:5 treble 
V:6 treble 
V:1
 z4 z[Q:1/4=82] [FA][GB][DF] | [FA]4- [FA][B,D][A,C][EG] | [DF]4- [DF][B,D][A,C][A,D] | %3
 [CE]4- [CE][EA] [=Gc]>[GB] |[M:5/8] A2- [FA-]2 [GA] |[M:3/8] [FA][GB][DF] | %6
[M:4/4] [FA]4- [FA][B,D][=A,C][EG] | [DF]4- [DF][Fd][_Fd][Fd] | [FA]3 [FA] [EG]3 [DF] | %9
[M:5/8] F-F- F3 |[M:3/8] z3 |[M:4/4] z8 | z8 | z8 |[M:5/8] z5 |[M:3/8] z3 |[M:4/4] z8 | z8 | %18
 z8[Q:1/4=81][Q:1/4=79][Q:1/4=78][Q:1/4=77][Q:1/4=76][Q:1/4=74][Q:1/4=73][Q:1/4=72][Q:1/4=70][Q:1/4=69][Q:1/4=68][Q:1/4=67][Q:1/4=65][Q:1/4=64][Q:1/4=63] | %19
[M:5/8] z5 |] %20
V:2
 x8 | x8 | x8 | x8 |[M:5/8] E2 z z2 |[M:3/8] x3 |[M:4/4] x8 | x8 | x8 |[M:5/8] D- D3 D | %10
[M:3/8] x3 |[M:4/4] x8 | x8 | x8 |[M:5/8] x5 |[M:3/8] x3 |[M:4/4] x8 | x8 | x8 |[M:5/8] x5 |] %20
V:3
 z4 z ABF | [FA]4- [FA]DCG | [DF]4- [DF]DCD | z2 A,2 z A c>B |[M:5/8] A-A- A3 |[M:3/8] ABF | %6
[M:4/4] [FA]4- [FA]D[=A,C]G | [DF]4- [DF]ddd | A3 f e3 [Fd] |[M:5/8] d-[Ad-][=Gd-] [_Gd-][Fd] | %10
[M:3/8] [Fd][Fd][Fd] |[M:4/4] [Gd]4- [Gd][Bd][Ac][GB] | [FA]4- [FA][FA][GB]F | G4- GEFG | %14
[M:5/8] [FA]-[FA]- [FA]3 |[M:3/8] [Fd][Fd][Fd] |[M:4/4] [Gd]4- [Gd][Bd][Ac][GB] | %17
 [FA]4- [FA][DF][DA][Fd] | f3 d e3 [Fd] |[M:5/8] [Fd]-[Fd]- [Fd]3 |] %20
V:4
 z4 z FGD | z A,B,A, F,B,A,E | z A,B,A, z B,[G,A,][F,A,] | C4 z[K:treble] E =G->[DG] | %4
[M:5/8] [CE]2 D2 E |[M:3/8] FGD |[M:4/4][K:bass] z A,B,A, z B, z E | z4 z[K:treble] .[=G,B,]3 | %8
 [A,DF]3 [A,DA] [A,CG]3[K:bass] [D,A,] |[M:5/8] D,-[D,-C][D,-B,] [D,-=A,][D,_A,] | %10
[M:3/8] [D,F,][D,A,][D,_C] |[M:4/4] [G,B,]4- [G,B,][G,B,][G,C][G,D] | %12
 [D,D]4- [D,D][D,D][D,D][D,A,D] | [E,A,C]4- [E,A,C][G,A,C][F,A,D][E,CE] | %14
[M:5/8] [D,D]-[D,D]- [D,D]3 |[M:3/8] [D,F,][D,A,][D,_C] |[M:4/4] [G,B,]4- [G,B,][G,B,][G,C][G,D] | %17
 [D,D]4- [D,D][D,A,][F,A,][D,A,] | [A,DA]3 [A,DF][K:bass] [A,,A,CG]3 [D,A,] | %19
[M:5/8] [D,A,]-[D,A,]- [D,A,]3 |] %20
V:5
 x8 | D,6 z2 | z4 F,2 z2 | z4 z2[K:treble] E2 |[M:5/8] A,-A,- A,3 |[M:3/8] x3 | %6
[M:4/4][K:bass] z4 F,2 z2 | B,,B,,D,B,- B,[K:treble]F_FF | x7[K:bass] x |[M:5/8] A, z z z2 | %10
[M:3/8] x3 |[M:4/4] x8 | x8 | x8 |[M:5/8] x5 |[M:3/8] x3 |[M:4/4] x8 | x8 | x4[K:bass] x4 | %19
[M:5/8] x5 |] %20
V:6
 x8 | x8 | D,6 z2 | E,8[K:treble] |[M:5/8] x5 |[M:3/8] x3 |[M:4/4][K:bass] D,6 E,2 | %7
 x5[K:treble] x3 | x7[K:bass] x |[M:5/8] x5 |[M:3/8] x3 |[M:4/4] x8 | x8 | x8 |[M:5/8] x5 | %15
[M:3/8] x3 |[M:4/4] x8 | x8 | x4[K:bass] x4 |[M:5/8] x5 |] %20
V:7
 x8 | x8 | x8 | E6 z2 |[M:5/8] z2 F2 G |[M:3/8] x3 |[M:4/4] x8 | B,4 z4 | x8 |[M:5/8] F z z z2 | %10
[M:3/8] x3 |[M:4/4] x8 | x8 | x8 |[M:5/8] x5 |[M:3/8] x3 |[M:4/4] x8 | x8 | x8 |[M:5/8] x5 |] %20
V:8
 x8 | x8 | x8 | z4 C2 z2 |[M:5/8] x5 |[M:3/8] x3 |[M:4/4] x8 | x8 | x8 |[M:5/8] x5 |[M:3/8] x3 | %11
[M:4/4] x8 | x8 | x8 |[M:5/8] x5 |[M:3/8] x3 |[M:4/4] x8 | x8 | x8 |[M:5/8] x5 |] %20

